X: 23856
T: Livvie's
R: jig
M: 6/8
K: Eminor
|:~G3 AGF|GED EGA|BGG AGG|cAc AGF|
~G3 AGF|GED EGA|B/c/dg edB|1 BAF E2F:|2 BAF E2B||
|:eBe ~g3|bda gfe|faf d^cd|FAD F(3A/B/c/d|
eBe ~g3|bde fed|~B3 AGF|1 GAF E2B:|2 GAF E2F||

